dist/images/icons/favicon.svg

<svg width="32" height="32" viewBox="0 0 32 32" fill="none" xmlns="http://www.w3.org/2000/svg">
<rect width="32" height="32" fill="#FC784E"/>
<path d="M15.5143 24.4571C14.1581 24.4571 12.9924 24.2514 12.0171 23.84C11.0419 23.4286 10.3029 22.8876 9.8 22.2171C9.29714 21.5467 9.03048 20.8229 9 20.0457C9 19.9086 9.04571 19.7943 9.13714 19.7029C9.22857 19.6114 9.34286 19.5657 9.48 19.5657H11.5143C11.6971 19.5657 11.8343 19.6038 11.9257 19.68C12.0324 19.741 12.1314 19.8476 12.2229 20C12.3752 20.5181 12.7257 20.9524 13.2743 21.3029C13.8229 21.6533 14.5695 21.8286 15.5143 21.8286C16.5962 21.8286 17.4114 21.6533 17.96 21.3029C18.5086 20.9371 18.7829 20.4343 18.7829 19.7943C18.7829 19.3676 18.6381 19.0171 18.3486 18.7429C18.0743 18.4686 17.6552 18.2324 17.0914 18.0343C16.5429 17.8362 15.72 17.5924 14.6229 17.3029C12.8248 16.8762 11.5067 16.3124 10.6686 15.6114C9.84571 14.8952 9.43429 13.8819 9.43429 12.5714C9.43429 11.6876 9.67048 10.9029 10.1429 10.2171C10.6305 9.53143 11.3238 8.99048 12.2229 8.59429C13.1371 8.1981 14.1962 8 15.4 8C16.6495 8 17.7314 8.22095 18.6457 8.66286C19.56 9.10476 20.2533 9.66095 20.7257 10.3314C21.2133 10.9867 21.4724 11.6419 21.5029 12.2971C21.5029 12.4343 21.4571 12.5486 21.3657 12.64C21.2743 12.7314 21.16 12.7771 21.0229 12.7771H18.8971C18.5771 12.7771 18.3562 12.6324 18.2343 12.3429C18.1429 11.8552 17.8381 11.4514 17.32 11.1314C16.8019 10.7962 16.1619 10.6286 15.4 10.6286C14.5467 10.6286 13.8762 10.7886 13.3886 11.1086C12.901 11.4286 12.6571 11.8933 12.6571 12.5029C12.6571 12.9295 12.779 13.28 13.0229 13.5543C13.2667 13.8286 13.6476 14.0724 14.1657 14.2857C14.699 14.499 15.461 14.7352 16.4514 14.9943C17.7924 15.299 18.859 15.6419 19.6514 16.0229C20.459 16.4038 21.0533 16.8838 21.4343 17.4629C21.8152 18.0419 22.0057 18.781 22.0057 19.68C22.0057 20.6552 21.7314 21.5086 21.1829 22.24C20.6495 22.9562 19.8876 23.5048 18.8971 23.8857C17.9219 24.2667 16.7943 24.4571 15.5143 24.4571Z" fill="white"/>
</svg>

<svg width="32" height="32" fill="none" xmlns="http://www.w3.org/2000/svg"><path fill="#FC784E" d="M0 0h32v32H0z"/><path d="M15.514 24.457c-1.356 0-2.522-.206-3.497-.617-.975-.411-1.714-.952-2.217-1.623-.503-.67-.77-1.394-.8-2.171a.465.465 0 01.48-.48h2.034c.183 0 .32.038.412.114a.873.873 0 01.297.32c.152.518.503.952 1.051 1.303.549.35 1.296.526 2.24.526 1.082 0 1.897-.176 2.446-.526.549-.366.823-.869.823-1.509 0-.426-.145-.777-.434-1.051-.275-.274-.694-.51-1.258-.709-.548-.198-1.371-.442-2.468-.731-1.798-.427-3.116-.99-3.954-1.692-.823-.716-1.235-1.73-1.235-3.04 0-.883.236-1.668.709-2.354.487-.686 1.18-1.227 2.08-1.623C13.137 8.198 14.196 8 15.4 8c1.25 0 2.331.221 3.246.663.914.442 1.607.998 2.08 1.668.487.656.746 1.31.777 1.966a.465.465 0 01-.48.48h-2.126c-.32 0-.54-.145-.663-.434-.091-.488-.396-.892-.914-1.212-.518-.335-1.158-.502-1.92-.502-.853 0-1.524.16-2.011.48-.488.32-.732.784-.732 1.394 0 .427.122.777.366 1.051.244.275.625.518 1.143.732.533.213 1.295.45 2.285.708 1.341.305 2.408.648 3.2 1.029.808.38 1.402.86 1.783 1.44.381.579.572 1.318.572 2.217 0 .975-.275 1.829-.823 2.56-.534.716-1.295 1.265-2.286 1.646-.975.38-2.103.571-3.383.571z" fill="#fff"/></svg>
